packages/foundations/assets/icons/functional/images/food/breakfast_24.svg

<svg width="24" height="24" viewBox="0 0 24 24" fill="none" xmlns="http://www.w3.org/2000/svg">
<g clip-path="url(#clip0_185_1036)">
<g clip-path="url(#clip1_185_1036)">
<path fill-rule="evenodd" clip-rule="evenodd" d="M10.2688 5.18942L9.6432 6.25463C10.1432 6.4592 10.2806 6.85616 10.2175 7.17329L9.94957 8.51848C10.1713 8.57709 10.3766 8.725 10.4473 8.95037C10.495 9.10118 10.6319 9.60075 10.8563 10.4496C10.9054 10.6332 10.883 10.8285 10.7936 10.9962C10.7043 11.1639 10.5546 11.2915 10.3748 11.353C10.195 11.4146 9.9986 11.4057 9.82518 11.328C9.65176 11.2503 9.51429 11.1097 9.44055 10.9345L9.10849 9.81122L3.93343 10.2102C3.9342 12.2029 4.47925 13.9473 5.27488 15.317L7.1017 14.3958C7.40974 14.2356 7.84776 14.2901 8.07107 14.6444C8.29533 14.9984 8.23816 15.5076 7.78282 15.7362L6.62367 16.3325C6.77572 16.7339 7.31206 17.6575 7.94439 18.1165C8.10391 18.2353 8.20969 18.4127 8.23845 18.6095C8.26722 18.8064 8.21661 19.0065 8.09777 19.1661C7.97892 19.3256 7.80158 19.4314 7.60475 19.4601C7.40792 19.4889 7.20772 19.4383 7.0482 19.3194C6.1555 18.6538 5.49051 17.4934 5.28206 17.013C5.13992 17.0573 4.9878 17.0584 4.84503 17.0161C4.70226 16.9738 4.57529 16.89 4.48025 16.7754C3.15571 15.1974 2.11326 11.902 2.50805 9.41504C2.55804 9.09934 2.81468 8.78211 3.3789 8.78208C3.19211 6.74812 3.69148 5.20012 4.87822 4.13881C5.11721 3.92569 5.55164 3.82378 6.01446 4.19877L6.65306 3.11247C7.21009 2.16605 8.41208 1.7798 9.47063 2.32645C10.5296 2.87091 10.8471 4.20626 10.2688 5.18942ZM8.64073 7.41255L5.51522 5.63906C5.17109 6.04703 4.98448 6.53288 4.88615 7.10482C4.82078 7.48675 4.81181 7.96331 4.85997 8.53327L8.46453 8.30041L8.6417 7.41229L8.64073 7.41255ZM22.4195 15.678C22.4201 16.0721 22.3429 16.4624 22.1923 16.8266C22.0418 17.1908 21.8208 17.5216 21.5421 17.8002C21.2633 18.0788 20.9323 18.2997 20.5681 18.4501C20.2038 18.6004 19.8135 18.6775 19.4194 18.6766C19.3701 19.281 19.2419 19.7646 19.0343 20.1257C18.723 20.6677 18.3683 21.0247 17.8675 21.2924C17.3812 21.5522 16.9126 21.658 16.1075 21.675L13.9839 21.6777C13.0199 21.6772 12.5057 21.5779 11.9704 21.2917C11.4743 21.0279 11.0684 20.6218 10.8049 20.1256C10.5442 19.6395 10.4393 19.1707 10.4221 18.3647L10.4196 14.9593C10.4194 14.4024 10.4839 14.0673 10.6706 13.717C10.8493 13.3817 11.124 13.1073 11.4595 12.929C11.7656 12.7652 12.0596 12.6957 12.5028 12.6805L19.4044 12.6823C21.0931 12.648 22.4191 14.0807 22.4195 15.678ZM8.73412 3.63465C8.59804 3.56284 8.43917 3.54743 8.29183 3.59175C8.14448 3.63608 8.02048 3.73657 7.9466 3.87155L7.31931 4.93825L8.33809 5.51419L8.97573 4.42815C9.11793 4.1861 9.07198 3.79052 8.73412 3.63465ZM17.42 14.6768L12.4278 14.6842L12.427 18.4983C12.4457 18.8039 12.4916 19.037 12.569 19.1829C12.6508 19.3339 12.9278 19.6603 13.5365 19.668C14.1443 19.676 15.0449 19.6759 16.3047 19.6675C16.7042 19.6516 16.8325 19.5779 16.9258 19.5281C17.0734 19.4508 17.1939 19.3304 17.2712 19.1829C17.3093 19.1126 17.3978 18.9637 17.4111 18.5615C17.4176 17.2666 17.4205 15.9717 17.42 14.6768ZM14.4197 9.67699L14.4186 10.6774C14.4228 10.8113 14.4001 10.9447 14.3518 11.0696C14.3035 11.1946 14.2306 11.3085 14.1374 11.4048C14.0442 11.501 13.9326 11.5775 13.8092 11.6298C13.6859 11.682 13.5533 11.709 13.4193 11.709C13.2853 11.709 13.1527 11.6821 13.0294 11.6299C12.906 11.5777 12.7944 11.5012 12.7011 11.405C12.6079 11.3089 12.5349 11.1949 12.4865 11.07C12.4382 10.945 12.4154 10.8117 12.4196 10.6778L12.4198 9.67765C12.4209 9.41324 12.5267 9.16005 12.7141 8.97346C12.9014 8.78687 13.155 8.68207 13.4194 8.68198C13.6838 8.6819 13.9375 8.78653 14.125 8.973C14.3124 9.15947 14.4184 9.41259 14.4197 9.67699ZM17.419 8.67663L17.4199 10.6776C17.4199 10.8089 17.394 10.939 17.3437 11.0603C17.2935 11.1816 17.2198 11.2919 17.1269 11.3847C17.034 11.4776 16.9237 11.5512 16.8024 11.6015C16.681 11.6517 16.551 11.6776 16.4197 11.6775C16.2883 11.6775 16.1583 11.6516 16.0369 11.6014C15.9156 11.5511 15.8054 11.4774 15.7125 11.3845C15.6197 11.2916 15.546 11.1814 15.4958 11.06C15.4455 10.9387 15.4197 10.8086 15.4197 10.6773L15.419 8.67729C15.4191 8.41204 15.5245 8.15767 15.7121 7.97014C15.8997 7.78261 16.1541 7.67728 16.4193 7.67733C16.6846 7.67737 16.9389 7.78278 17.1265 7.97036C17.314 8.15795 17.4193 8.41235 17.4193 8.6776L17.419 8.67663ZM19.4203 14.6771L19.4201 16.6856C20.0658 16.642 20.4199 16.19 20.4192 15.6777C20.4197 15.5462 20.3941 15.416 20.344 15.2944C20.2939 15.1729 20.2203 15.0625 20.1273 14.9695C20.0344 14.8766 19.924 14.8029 19.8025 14.7527C19.681 14.7026 19.5517 14.6767 19.4203 14.6771Z" fill="#1A1C1F"/>
</g>
</g>
<defs>
<clipPath id="clip0_185_1036">
<rect width="24" height="24" fill="white"/>
</clipPath>
<clipPath id="clip1_185_1036">
<rect width="24" height="24" fill="white"/>
</clipPath>
</defs>
</svg>

<svg xmlns="http://www.w3.org/2000/svg" width="24" height="24" fill="none"><g clip-path="url(#a)"><g clip-path="url(#b)"><path fill="#1A1C1F" fill-rule="evenodd" d="m10.269 5.19-.626 1.065c.5.204.638.601.574.918L9.95 8.518c.221.06.427.207.497.432q.072.226.41 1.5a.75.75 0 0 1-1.416.485L9.108 9.81l-5.175.4c.001 1.992.546 3.736 1.342 5.106l1.827-.921c.308-.16.746-.106.97.248s.166.864-.29 1.092l-1.158.596c.152.402.688 1.325 1.32 1.784a.75.75 0 1 1-.896 1.203c-.893-.665-1.557-1.826-1.766-2.306a.75.75 0 0 1-.802-.238c-1.324-1.578-2.367-4.873-1.972-7.36.05-.316.307-.633.87-.633q-.28-3.051 1.5-4.643c.24-.213.674-.315 1.136.06l.64-1.087c.556-.946 1.758-1.332 2.817-.786 1.059.545 1.376 1.88.798 2.863M8.64 7.412 5.515 5.639c-.344.408-.53.894-.629 1.466q-.098.573-.026 1.428L8.465 8.3zm13.779 8.265a2.994 2.994 0 0 1-3 2.999q-.075.907-.386 1.449c-.311.542-.666.899-1.166 1.166-.487.26-.955.366-1.76.383l-2.124.003c-.964 0-1.478-.1-2.014-.386a2.8 2.8 0 0 1-1.165-1.166c-.26-.486-.366-.955-.383-1.761l-.002-3.406c0-.557.064-.892.25-1.242a1.9 1.9 0 0 1 .79-.788c.306-.164.6-.233 1.043-.248l6.901.001c1.69-.034 3.015 1.399 3.015 2.996M8.734 3.635a.586.586 0 0 0-.787.237l-.628 1.066 1.02.576.637-1.086c.142-.242.096-.637-.242-.793m8.686 11.042-4.992.007-.001 3.814c.019.306.065.539.142.685.082.15.359.477.967.485s1.509.008 2.769 0c.4-.016.527-.09.62-.14a.8.8 0 0 0 .346-.345c.038-.07.127-.22.14-.622q.01-1.942.009-3.884m-3-5-.001 1a1 1 0 1 1-2 0v-1a1 1 0 0 1 2 0m2.999-1v2a1 1 0 1 1-2 0v-2a1 1 0 0 1 2 0m2.001 6v2.009c.646-.044 1-.496 1-1.008a.996.996 0 0 0-1-1" clip-rule="evenodd"/></g></g><defs><clipPath id="a"><path fill="#fff" d="M0 0h24v24H0z"/></clipPath><clipPath id="b"><path fill="#fff" d="M0 0h24v24H0z"/></clipPath></defs></svg>
